X: 39970
T: Three Around Three
R: barndance
M: 4/4
K: Gmajor
A2|:d2 BA G2 G2|A2 B/c/B/A/ G2 D2|EDEF G2 AB|c2 B/c/B B2 A2|
d2 B/c/B/A/ G2 G2|A2 B/c/B/A/ G2 D2|EDEF G2 AB|1 AG F2 GA Bc:|2 AG F2 G2 G2||
|:d2 ef gfed|e2 ee e2 f/g/f/e/|d2 B2 B2 AG|FGAB A2 A2|
d2 ef gfed|e2 e2 e2 d2|efge fgaf|1 g2 g/a/g/f/ g2 e2:|2 g2 g/a/g/f/ g4||

